X: 4
T: The Pipe On The Hob
R: jig
M: 6/8
L: 1/8
K: Edor
|:EF|G2G BAG| BAG FED|E3 d3|Bec dBA|
G2G BAG|BAG ABd|edB AFB| EFE E2:|
|:c|d3 dBe|edB AFB|E3 d3|Bec dBc|
d3 dBe|edB AB/c/d|edB AFB|EFE E2:|
|:F|G2G AF/G/A|BGE EDB|G2G AF/G/A|BGE E2F|
GFG AF/G/A|BAB def| edB AFB|EFE E2:||


Tune 81	Setting 22811

